assets/2023/icons/react_dark.svg

<!-- Copyright 2000-2022 JetBrains s.r.o. and contributors. Use of this source code is governed by the Apache 2.0 license. -->
<svg width="16" height="16" viewBox="0 0 16 16" fill="none" xmlns="http://www.w3.org/2000/svg">
<path d="M8.00002 9.24785C8.68918 9.24785 9.24785 8.68918 9.24785 8.00002C9.24785 7.31087 8.68918 6.7522 8.00002 6.7522C7.31087 6.7522 6.7522 7.31087 6.7522 8.00002C6.7522 8.68918 7.31087 9.24785 8.00002 9.24785Z" fill="#81D8F7"/>
<path d="M8.0001 10.5565C11.698 10.5565 14.6957 9.41193 14.6957 8C14.6957 6.58808 11.698 5.44348 8.0001 5.44348C4.30219 5.44348 1.30444 6.58808 1.30444 8C1.30444 9.41193 4.30219 10.5565 8.0001 10.5565Z" stroke="#81D8F7" stroke-width="0.608696"/>
<path d="M5.78601 9.27828C7.63496 12.4808 10.1251 14.5046 11.3479 13.7986C12.5706 13.0927 12.063 9.92424 10.214 6.72176C8.36508 3.51928 5.87496 1.49545 4.6522 2.20142C3.42943 2.90738 3.93706 6.0758 5.78601 9.27828Z" stroke="#81D8F7" stroke-width="0.608696"/>
<path d="M5.78592 6.72176C3.93696 9.92424 3.42934 13.0927 4.6521 13.7986C5.87487 14.5046 8.36499 12.4808 10.2139 9.27828C12.0629 6.0758 12.5705 2.90738 11.3478 2.20141C10.125 1.49545 7.63487 3.51928 5.78592 6.72176Z" stroke="#81D8F7" stroke-width="0.608696"/>
</svg>

<svg xmlns="http://www.w3.org/2000/svg" width="16" height="16" fill="none" viewBox="0 0 16 16"><path fill="#81D8F7" d="M8 9.248a1.248 1.248 0 1 0 0-2.496 1.248 1.248 0 0 0 0 2.496"/><path stroke="#81D8F7" stroke-width=".609" d="M8 10.557c3.698 0 6.696-1.145 6.696-2.557S11.698 5.443 8 5.443 1.304 6.588 1.304 8 4.302 10.557 8 10.557Z"/><path stroke="#81D8F7" stroke-width=".609" d="M5.786 9.278c1.849 3.203 4.34 5.227 5.562 4.52 1.223-.705.715-3.874-1.134-7.076-1.849-3.203-4.339-5.227-5.562-4.52-1.223.705-.715 3.874 1.134 7.076Z"/><path stroke="#81D8F7" stroke-width=".609" d="M5.786 6.722c-1.849 3.202-2.357 6.37-1.134 7.077s3.713-1.318 5.562-4.52c1.849-3.203 2.356-6.372 1.134-7.078-1.223-.706-3.713 1.318-5.562 4.52Z"/></svg>
